flaticon/emoticons/dazed-1.svg

<svg xmlns="http://www.w3.org/2000/svg" width="32" height="32" viewBox="0 0 24 24">
    <path d="M11.0625 11.195312C11.0625 10.972656 10.882812 10.796875 10.664062 10.796875 10.441406 10.796875 10.261719 10.972656 10.261719 11.195312 10.261719 12.742188 9.550781 13.597656 8.261719 13.597656 7.222656 13.597656 6.113281 13.144531 6.113281 11.871094 6.113281 10.984375 6.839844 10.257812 7.726562 10.257812 8.382812 10.257812 8.917969 10.792969 8.917969 11.449219 8.917969 11.921875 8.535156 12.308594 8.0625 12.308594 7.734375 12.308594 7.46875 12.039062 7.46875 11.714844 7.46875 11.503906 7.640625 11.332031 7.851562 11.332031 8.074219 11.332031 8.253906 11.152344 8.253906 10.929688 8.253906 10.707031 8.074219 10.53125 7.851562 10.53125 7.199219 10.53125 6.667969 11.0625 6.667969 11.714844 6.667969 12.480469 7.292969 13.105469 8.0625 13.105469 8.976562 13.105469 9.71875 12.363281 9.71875 11.449219 9.71875 10.351562 8.824219 9.460938 7.726562 9.460938 6.398438 9.460938 5.3125 10.542969 5.3125 11.871094 5.3125 13.382812 6.5 14.398438 8.261719 14.398438 9.992188 14.398438 11.0625 13.167969 11.0625 11.195312zM15.316406 8.792969C13.589844 8.792969 12.515625 10.019531 12.515625 11.996094 12.515625 12.21875 12.695312 12.394531 12.917969 12.394531 13.136719 12.394531 13.316406 12.21875 13.316406 11.996094 13.316406 10.449219 14.027344 9.59375 15.316406 9.59375 16.355469 9.59375 17.464844 10.046875 17.464844 11.320312 17.464844 12.207031 16.742188 12.933594 15.851562 12.933594 15.195312 12.933594 14.660156 12.398438 14.660156 11.742188 14.660156 11.269531 15.046875 10.882812 15.519531 10.882812 15.84375 10.882812 16.109375 11.148438 16.109375 11.476562 16.109375 11.6875 15.9375 11.859375 15.726562 11.859375 15.507812 11.859375 15.328125 12.039062 15.328125 12.261719 15.328125 12.480469 15.507812 12.660156 15.726562 12.660156 16.378906 12.660156 16.910156 12.128906 16.910156 11.476562 16.910156 10.707031 16.285156 10.085938 15.519531 10.085938 14.605469 10.085938 13.863281 10.828125 13.863281 11.742188 13.863281 12.839844 14.753906 13.730469 15.851562 13.730469 17.183594 13.730469 18.265625 12.648438 18.265625 11.320312 18.265625 9.808594 17.082031 8.792969 15.316406 8.792969zM12.265625 15.195312C9.347656 15.195312 7.460938 16.765625 7.460938 19.199219 7.460938 19.644531 7.515625 20.277344 7.960938 20.601562 8.46875 20.96875 9.175781 20.738281 9.992188 20.472656 10.671875 20.25 11.445312 20 12.265625 20 13.082031 20 13.855469 20.25 14.535156 20.472656 15.046875 20.640625 15.519531 20.792969 15.921875 20.792969 16.160156 20.792969 16.378906 20.738281 16.566406 20.601562 17.015625 20.277344 17.066406 19.644531 17.066406 19.199219 17.066406 16.765625 15.179688 15.195312 12.265625 15.195312zM10.78125 19.402344C11.015625 18.8125 11.589844 18.390625 12.265625 18.390625 12.9375 18.390625 13.511719 18.8125 13.75 19.402344 13.285156 19.285156 12.789062 19.199219 12.265625 19.199219 11.738281 19.199219 11.242188 19.285156 10.78125 19.402344zM16.097656 19.953125C15.921875 20.082031 15.316406 19.882812 14.785156 19.710938 14.738281 19.695312 14.6875 19.679688 14.640625 19.664062 14.476562 18.496094 13.476562 17.59375 12.265625 17.59375 11.050781 17.59375 10.050781 18.496094 9.886719 19.664062 9.839844 19.679688 9.789062 19.695312 9.746094 19.710938 9.210938 19.886719 8.609375 20.082031 8.429688 19.953125 8.390625 19.925781 8.261719 19.785156 8.261719 19.199219 8.261719 16.839844 10.328125 15.996094 12.265625 15.996094 14.199219 15.996094 16.265625 16.839844 16.265625 19.199219 16.265625 19.785156 16.136719 19.925781 16.097656 19.953125zM16.097656 19.953125"/>
    <path d="M 22.515625 7.539062 C 22.289062 5.90625 21.585938 4.496094 20.585938 3.671875 C 20.328125 3.457031 20.136719 3.125 20.023438 2.679688 C 19.691406 1.394531 18.484375 0.496094 16.945312 0.390625 C 16.089844 0.332031 15.347656 0.601562 14.53125 0.925781 C 14.503906 0.9375 14.472656 0.9375 14.421875 0.90625 C 14.253906 0.460938 13.878906 0.15625 13.359375 0.046875 C 12.15625 -0.207031 10.304688 0.570312 8.816406 1.925781 C 8.816406 1.570312 8.894531 1.25 9.09375 1.148438 L 9.769531 0.8125 L 9.109375 0.441406 C 8.417969 0.0507812 6.742188 -0.371094 5.375 0.820312 C 4.882812 1.253906 4.519531 1.859375 4.335938 2.574219 C 4.296875 2.71875 4.261719 2.875 4.226562 3.027344 C 4.210938 3.09375 4.15625 3.113281 4.132812 3.121094 C 4.089844 3.128906 4.054688 3.121094 4.015625 3.070312 C 3.800781 2.8125 3.476562 2.683594 3.144531 2.730469 C 2.828125 2.773438 2.558594 2.976562 2.433594 3.273438 C 1.644531 5.101562 0.171875 9.753906 3.3125 13.734375 L 3.3125 20.398438 C 3.3125 21.5 4.210938 22.398438 5.3125 22.398438 L 6.515625 22.398438 L 6.515625 23.078125 C 6.515625 23.585938 6.929688 24 7.4375 24 L 16.796875 24 C 17.304688 24 17.71875 23.585938 17.71875 23.078125 L 17.71875 22.398438 L 18.917969 22.398438 C 20.023438 22.398438 20.917969 21.5 20.917969 20.398438 L 20.917969 13.753906 C 21.386719 13.226562 23.007812 11.109375 22.515625 7.539062 Z M 3.167969 3.589844 C 3.175781 3.574219 3.195312 3.53125 3.257812 3.519531 C 3.28125 3.519531 3.34375 3.515625 3.386719 3.570312 L 3.414062 3.601562 C 3.636719 3.867188 3.984375 3.980469 4.324219 3.898438 C 4.667969 3.8125 4.929688 3.546875 5.007812 3.203125 C 5.039062 3.058594 5.074219 2.910156 5.109375 2.773438 C 5.253906 2.21875 5.527344 1.75 5.902344 1.421875 C 6.742188 0.691406 7.667969 0.785156 8.222656 0.945312 C 8.023438 1.324219 7.964844 1.859375 8.054688 2.511719 C 8.085938 2.726562 8.234375 2.902344 8.441406 2.96875 C 8.648438 3.039062 8.875 2.984375 9.03125 2.828125 C 10.554688 1.28125 12.3125 0.644531 13.191406 0.832031 C 13.570312 0.910156 13.648438 1.121094 13.671875 1.1875 C 13.753906 1.398438 13.910156 1.5625 14.121094 1.65625 C 14.34375 1.753906 14.601562 1.757812 14.832031 1.667969 C 15.578125 1.371094 16.199219 1.144531 16.890625 1.191406 C 17.835938 1.257812 18.953125 1.734375 19.25 2.878906 C 19.40625 3.492188 19.683594 3.964844 20.078125 4.289062 C 20.476562 4.621094 21.441406 5.609375 21.722656 7.648438 C 22.03125 9.871094 21.445312 11.457031 20.917969 12.375 L 20.917969 6.894531 L 20.316406 7.25 C 19.332031 7.828125 18.472656 8.003906 17.761719 7.773438 C 17.652344 7.738281 17.546875 7.695312 17.453125 7.644531 C 17.414062 7.625 17.382812 7.597656 17.34375 7.578125 C 17.292969 7.542969 17.238281 7.515625 17.191406 7.480469 C 17.148438 7.445312 17.109375 7.414062 17.074219 7.378906 C 17.039062 7.351562 17 7.324219 16.972656 7.292969 C 16.929688 7.25 16.894531 7.210938 16.855469 7.167969 C 16.835938 7.148438 16.8125 7.125 16.796875 7.105469 C 16.753906 7.054688 16.722656 7.011719 16.6875 6.964844 C 16.679688 6.953125 16.667969 6.941406 16.660156 6.929688 C 16.625 6.875 16.59375 6.828125 16.570312 6.789062 C 16.570312 6.785156 16.566406 6.78125 16.566406 6.78125 C 16.515625 6.695312 16.488281 6.636719 16.484375 6.632812 L 16.398438 6.429688 L 16.179688 6.398438 C 12.339844 5.804688 10.472656 7.414062 9.949219 7.972656 C 7.160156 7.671875 5.953125 6.871094 5.941406 6.863281 L 5.644531 6.660156 L 5.410156 6.933594 C 4.789062 7.65625 4.070312 8.027344 3.574219 8.207031 L 3.3125 8.304688 L 3.3125 12.332031 C 1.351562 9.054688 2.339844 5.515625 3.167969 3.589844 Z M 16.917969 23.078125 C 16.917969 23.144531 16.863281 23.199219 16.796875 23.199219 L 7.4375 23.199219 C 7.371094 23.199219 7.316406 23.144531 7.316406 23.078125 L 7.316406 22.398438 L 16.917969 22.398438 Z M 20.117188 20.398438 C 20.117188 21.0625 19.582031 21.597656 18.917969 21.597656 L 5.3125 21.597656 C 4.652344 21.597656 4.113281 21.0625 4.113281 20.398438 L 4.113281 8.855469 C 4.605469 8.640625 5.21875 8.285156 5.792969 7.699219 C 6.355469 7.992188 7.714844 8.5625 10.078125 8.792969 L 10.304688 8.8125 L 10.4375 8.632812 C 10.453125 8.609375 11.957031 6.628906 15.859375 7.160156 C 16.0625 7.515625 16.578125 8.230469 17.503906 8.53125 C 18.285156 8.789062 19.160156 8.695312 20.117188 8.253906 Z M 20.117188 20.398438"/>
</svg>

<svg xmlns="http://www.w3.org/2000/svg" width="32" height="32" viewBox="0 0 24 24">
    <path d="M11.063 11.195a.398.398 0 0 0-.399-.398.398.398 0 0 0-.402.398c0 1.547-.711 2.403-2 2.403-1.04 0-2.149-.453-2.149-1.727 0-.887.727-1.613 1.614-1.613.656 0 1.191.535 1.191 1.191 0 .473-.383.86-.855.86a.596.596 0 0 1-.594-.594c0-.211.172-.383.383-.383.222 0 .402-.18.402-.402a.398.398 0 0 0-.402-.399c-.653 0-1.184.531-1.184 1.184 0 .765.625 1.39 1.394 1.39.915 0 1.657-.742 1.657-1.656a1.992 1.992 0 0 0-1.992-1.988 2.417 2.417 0 0 0-2.415 2.41c0 1.512 1.188 2.527 2.95 2.527 1.73 0 2.8-1.23 2.8-3.203zm0 0M15.316 8.793c-1.726 0-2.8 1.227-2.8 3.203 0 .223.18.399.402.399a.398.398 0 0 0 .398-.399c0-1.547.711-2.402 2-2.402 1.04 0 2.149.453 2.149 1.726 0 .887-.723 1.614-1.613 1.614a1.194 1.194 0 0 1-1.192-1.192c0-.472.387-.86.86-.86.324 0 .59.266.59.595 0 .21-.172.382-.383.382a.401.401 0 0 0 0 .801c.652 0 1.183-.531 1.183-1.183 0-.77-.625-1.391-1.39-1.391-.915 0-1.657.742-1.657 1.656 0 1.098.89 1.988 1.989 1.988a2.415 2.415 0 0 0 2.414-2.41c0-1.511-1.184-2.527-2.95-2.527zm0 0M12.266 15.195c-2.918 0-4.805 1.57-4.805 4.004 0 .446.055 1.078.5 1.403.508.367 1.215.136 2.031-.13.68-.222 1.453-.472 2.274-.472.816 0 1.59.25 2.27.473.51.168.984.32 1.386.32.238 0 .457-.055.644-.191.45-.325.5-.957.5-1.403 0-2.433-1.886-4.004-4.8-4.004zm-1.485 4.207a1.6 1.6 0 0 1 1.485-1.011c.671 0 1.246.422 1.484 1.011a6.052 6.052 0 0 0-1.484-.203 6 6 0 0 0-1.485.203zm5.317.551c-.176.129-.782-.07-1.313-.242l-.144-.047a2.404 2.404 0 0 0-2.375-2.07 2.405 2.405 0 0 0-2.38 2.07c-.046.016-.097.031-.14.047-.535.176-1.137.371-1.316.242-.04-.027-.168-.168-.168-.754 0-2.36 2.066-3.203 4.004-3.203 1.933 0 4 .844 4 3.203 0 .586-.13.727-.168.754zm0 0"/>
    <path d="M22.516 7.54c-.227-1.634-.93-3.044-1.93-3.868-.258-.215-.45-.547-.563-.992-.332-1.285-1.539-2.184-3.078-2.29-.855-.058-1.597.212-2.414.536-.027.011-.058.011-.11-.02-.167-.445-.542-.75-1.062-.86-1.203-.253-3.054.524-4.543 1.88 0-.356.079-.676.278-.778L9.77.813 9.11.44c-.692-.39-2.368-.812-3.735.38-.492.433-.855 1.038-1.04 1.753-.038.145-.073.301-.108.453-.016.067-.07.086-.094.094-.043.008-.078 0-.117-.05a.954.954 0 0 0-.871-.34.899.899 0 0 0-.711.542c-.79 1.829-2.262 6.48.878 10.461v6.664c0 1.102.899 2 2 2h1.204v.68c0 .508.414.922.921.922h9.36a.924.924 0 0 0 .922-.922v-.68h1.199c1.105 0 2-.898 2-2v-6.644c.469-.527 2.09-2.645 1.598-6.215zM3.168 3.59c.008-.016.027-.059.09-.07.023 0 .086-.004.129.05l.027.032c.223.265.57.378.91.296a.926.926 0 0 0 .684-.695c.031-.144.066-.293.101-.43.145-.554.418-1.023.793-1.351.84-.73 1.766-.637 2.32-.477-.199.38-.257.914-.167 1.567.03.215.18.39.386.457.207.07.434.015.59-.14C10.555 1.28 12.312.644 13.191.831c.38.078.457.29.48.356a.84.84 0 0 0 .45.468c.223.098.48.102.711.012.746-.297 1.367-.523 2.059-.477.945.067 2.062.543 2.359 1.688.156.613.434 1.086.828 1.41.399.332 1.363 1.32 1.645 3.36.308 2.222-.278 3.808-.805 4.726v-5.48l-.602.355c-.984.578-1.843.754-2.554.523a1.827 1.827 0 0 1-.309-.128c-.039-.02-.07-.047-.11-.067-.05-.035-.105-.062-.152-.098-.043-.035-.082-.066-.117-.101-.035-.027-.074-.055-.101-.086-.043-.043-.078-.082-.118-.125a.859.859 0 0 1-.058-.063c-.043-.05-.074-.093-.11-.14-.007-.012-.019-.024-.027-.035l-.09-.14c0-.005-.004-.009-.004-.009-.05-.086-.078-.144-.082-.148l-.086-.203-.218-.032c-3.84-.593-5.707 1.016-6.23 1.575-2.79-.301-3.997-1.102-4.009-1.11l-.296-.203-.235.274a4.427 4.427 0 0 1-1.836 1.273l-.261.098v4.027C1.351 9.055 2.34 5.516 3.167 3.59zm13.75 19.488a.122.122 0 0 1-.121.121h-9.36a.122.122 0 0 1-.12-.12v-.68h9.601zm3.2-2.68c0 .665-.536 1.2-1.2 1.2H5.313a1.2 1.2 0 0 1-1.2-1.2V8.855A5.342 5.342 0 0 0 5.793 7.7c.562.293 1.922.864 4.285 1.094l.227.02.133-.18c.015-.024 1.519-2.004 5.421-1.473.204.356.72 1.07 1.645 1.371.781.258 1.656.164 2.613-.277zm0 0"/>
</svg>
